demo/img/redNumbers/5.svg

<?xml version="1.0" encoding="UTF-8"?>
<svg width="146px" height="159px" viewBox="0 0 146 159" version="1.1" xmlns="http://www.w3.org/2000/svg" xmlns:xlink="http://www.w3.org/1999/xlink">
    <!-- Generator: Sketch 52.6 (67491) - http://www.bohemiancoding.com/sketch -->
    <title>5</title>
    <desc>Created with Sketch.</desc>
    <g id="-" stroke="none" stroke-width="1" fill="none" fill-rule="evenodd" fill-opacity="0">
        <path d="M77.51875,56.5730794 C100.323531,56.5730794 117.390777,61.2277828 128.721,70.5373294 C140.051223,79.8468759 145.71625,92.1511696 145.71625,107.450579 C145.71625,117.120961 143.118276,125.816957 137.92225,133.538829 C132.726224,141.260701 124.824053,147.322641 114.2155,151.724829 C103.606947,156.127018 90.5809939,158.328079 75.13725,158.328079 C58.3944996,158.328079 44.5747212,156.27135 33.6775,152.157829 C22.7802788,148.044309 14.769859,142.59578 9.646,135.812079 C4.52214105,129.028379 1.67158622,121.595286 1.09425,113.512579 L24.90925,113.512579 C27.3629289,123.615963 32.522794,130.724309 40.389,134.837829 C48.255206,138.95135 60.054338,141.008079 75.78675,141.008079 C90.3644896,141.008079 101.983207,138.049276 110.64325,132.131579 C119.303293,126.213883 123.63325,118.275629 123.63325,108.316579 L123.63325,106.584579 C123.63325,96.6255296 119.339376,88.6872757 110.7515,82.7695794 C102.163624,76.8518831 89.7871642,73.8930794 73.62175,73.8930794 C61.9306915,73.8930794 52.0078741,75.5168132 43.853,78.7643294 C35.6981259,82.0118456 29.4557717,86.5222172 25.12575,92.2955794 L2.60975,92.2955794 L11.48625,0.716079395 L137.27275,0.716079395 L137.27275,18.4690794 L29.02275,18.4690794 L23.61025,73.2435794 C35.0126403,62.1298572 52.9819607,56.5730794 77.51875,56.5730794 Z" id="5" stroke="#870000" stroke-width="0.3" fill="#171717"></path>
    </g>
</svg>

<?xml version="1.0" encoding="utf-8"?>
<!-- Generator: Adobe Illustrator 16.0.0, SVG Export Plug-In . SVG Version: 6.00 Build 0)  -->
<!DOCTYPE svg PUBLIC "-//W3C//DTD SVG 1.1//EN" "http://www.w3.org/Graphics/SVG/1.1/DTD/svg11.dtd">
<svg version="1.1" id="Capa_1" xmlns="http://www.w3.org/2000/svg" xmlns:xlink="http://www.w3.org/1999/xlink" x="0px" y="0px"
	 width="146px" height="159px" viewBox="0 0 146 159" enable-background="new 0 0 146 159" xml:space="preserve">
<title>5</title>
<desc>Created with Sketch.</desc>
<g id="_x2D_">
	<path id="_x35_" fill="none" stroke="#1E7498" stroke-width="0.3" d="M77.519,56.573c22.806,0,39.872,4.654,51.202,13.964
		s16.996,21.614,16.996,36.914c0,9.67-2.599,18.365-7.795,26.088c-5.195,7.722-13.098,13.783-23.707,18.186
		c-10.607,4.402-23.634,6.604-39.078,6.604c-16.742,0-30.562-2.057-41.459-6.17c-10.897-4.113-18.908-9.563-24.032-16.346
		c-5.124-6.784-7.975-14.217-8.552-22.3h23.815c2.454,10.104,7.614,17.212,15.48,21.325s19.665,6.17,35.398,6.17
		c14.577,0,26.196-2.959,34.855-8.877c8.66-5.917,12.99-13.855,12.99-23.814v-1.732c0-9.959-4.293-17.896-12.881-23.814
		c-8.588-5.917-20.965-8.876-37.131-8.876c-11.69,0-21.613,1.624-29.768,4.871s-14.397,7.758-18.727,13.531H2.61l8.876-91.579
		h125.787v17.753H29.023L23.61,73.244C35.013,62.13,52.982,56.573,77.519,56.573z"/>
</g>
</svg>
